public/images/poses-lg/Goddess.svg

<svg width="800" height="800" fill="none" xmlns="http://www.w3.org/2000/svg"><path d="M369.331 142.419c-4.495-16.669-24.871-53.983-61.916-24.307-23.518 18.837-60.911 43.531-87.036 34.692-26.124-8.842-10.435 53.819 25.536 59.873 35.973 6.051 71.663-13.062 83.937-41.993 12.27-28.932 39.479-28.265 39.479-28.265Z" fill="#000" stroke="#000" stroke-width="5" stroke-miterlimit="10"/><path d="M681.416 785.269c-3.704-3.265-10.234-3.705-21.114-6.316-10.886-2.613-48.11-9.357-51.377-17.412-3.265-8.059-6.511-28.421-.876-79.746 5.634-51.322 15.786-74.704 16.619-97.107.836-22.399-5.441-23.168-31.875-41.9-26.433-18.731-76.894-44.43-100.663-58.27-23.773-13.841-35.499-47.153-35.499-47.153s-30.561 3.301-56.632 3.301c-26.069 0-56.632-3.301-56.632-3.301s-11.73 33.312-35.497 47.153c-23.772 13.84-74.23 39.539-100.664 58.27-26.436 18.732-32.713 19.501-31.88 41.9.833 22.403 10.988 45.785 16.623 97.107 5.633 51.325 2.389 71.687-.877 79.746-3.265 8.055-40.49 14.799-51.375 17.412-10.885 2.611-17.416 3.051-21.115 6.316-3.701 3.265-4.222 5.062 3.829 6.496 8.05 1.428 71.711 4.912 84.988 1.819 13.278-3.09 10.494-23.958 14.388-58.847 3.898-34.886 8.861-88.817 7.469-110.572-1.396-21.755-7.273-30.684-7.273-30.684s89.131-24.491 113.294-36.024c24.163-11.535 64.722-39.507 64.722-39.507s40.56 27.972 64.723 39.511c24.164 11.531 113.296 36.023 113.296 36.023s-5.878 8.93-7.273 30.685c-1.395 21.754 3.571 75.686 7.464 110.571 3.899 34.89 1.115 55.757 14.393 58.847 13.276 3.092 76.938-.392 84.99-1.819 8.049-1.437 7.527-3.233 3.824-6.499Z" fill="#fff" stroke="#000" stroke-width="5" stroke-miterlimit="10"/><path d="M681.416 785.269c-3.704-3.265-10.234-3.705-21.114-6.316-10.886-2.613-48.11-9.357-51.377-17.412-3.265-8.059-6.511-28.421-.876-79.746 5.634-51.322 15.786-74.704 16.619-97.107.836-22.399-5.441-23.168-31.875-41.9-26.433-18.731-76.894-44.43-100.663-58.27-23.773-13.841-35.499-47.153-35.499-47.153s-30.561 3.301-56.632 3.301c-26.069 0-56.632-3.301-56.632-3.301s-11.73 33.312-35.497 47.153c-23.772 13.84-74.23 39.539-100.664 58.27-26.436 18.732-32.713 19.501-31.88 41.9.833 22.403 10.988 45.785 16.623 97.107 5.633 51.325 2.389 71.687-.877 79.746-3.265 8.055-40.49 14.799-51.375 17.412-10.885 2.611-17.416 3.051-21.115 6.316-3.701 3.265-4.222 5.062 3.829 6.496 8.05 1.428 71.711 4.912 84.988 1.819 13.278-3.09 10.494-23.958 14.388-58.847 3.898-34.886 8.861-88.817 7.469-110.572-1.396-21.755-7.273-30.684-7.273-30.684s89.131-24.491 113.294-36.024c24.163-11.535 64.722-39.507 64.722-39.507s40.56 27.972 64.723 39.511c24.164 11.531 113.296 36.023 113.296 36.023s-5.878 8.93-7.273 30.685c-1.395 21.754 3.571 75.686 7.464 110.571 3.899 34.89 1.115 55.757 14.393 58.847 13.276 3.092 76.938-.392 84.99-1.819 8.049-1.437 7.527-3.233 3.824-6.499Z" stroke="#000" stroke-width="5" stroke-miterlimit="10"/><path d="M588.314 196.661c-10.194-29.736-11.062-58.608-22.004-75.682-10.935-17.074-21.438-10.446-19.402 1.005 2.038 11.451 4.763 24.806 9.12 32.426 4.353 7.617 6.311 8.924 8.052 17.633 1.746 8.707 12.627 96.653 10.888 109.061-1.745 12.409-136.49-2.395-144.111-8.056-7.618-5.658-20.349-18.317-18.12-60.424H387.26c2.228 42.107-10.499 54.766-18.119 60.424-7.62 5.661-142.368 20.465-144.11 8.056-1.74-12.408 9.144-100.355 10.885-109.061 1.742-8.709 3.702-10.015 8.054-17.633 4.354-7.62 7.081-20.975 9.12-32.426 2.036-11.452-8.468-18.08-19.405-1.005-10.938 17.074-11.809 45.946-22.002 75.682-10.195 29.734-25.4 108.714-20.851 113.99 4.547 5.273 8.187 5.5 64.676 6.152 38.71.449 66.002 1.893 79.341 1.842a8.495 8.495 0 0 1 8.355 6.792c1.708 8.229 4.304 22.428 5.691 48.62 2.176 41.143-5.528 63.309-5.528 63.309s26.1 4.501 56.632 3.303c30.53 1.196 56.629-3.303 56.629-3.303s-7.702-22.166-5.526-63.309c1.39-26.253 3.997-40.457 5.702-48.679a8.424 8.424 0 0 1 8.285-6.732c13.319.056 40.63-1.393 79.399-1.842 56.49-.653 60.131-.88 64.679-6.152 4.546-5.277-10.659-84.257-20.853-113.991Z" fill="#fff" stroke="#000" stroke-width="5" stroke-miterlimit="10"/><path d="M588.314 196.661c-10.194-29.736-11.062-58.608-22.004-75.682-10.935-17.074-21.438-10.446-19.402 1.005 2.038 11.451 4.763 24.806 9.12 32.426 4.353 7.617 6.311 8.924 8.052 17.633 1.746 8.707 12.627 96.653 10.888 109.061-1.745 12.409-136.49-2.395-144.111-8.056-7.618-5.658-20.349-18.317-18.12-60.424H387.26c2.228 42.107-10.499 54.766-18.119 60.424-7.62 5.661-142.368 20.465-144.11 8.056-1.74-12.408 9.144-100.355 10.885-109.061 1.742-8.709 3.702-10.015 8.054-17.633 4.354-7.62 7.081-20.975 9.12-32.426 2.036-11.452-8.468-18.08-19.405-1.005-10.938 17.074-11.809 45.946-22.002 75.682-10.195 29.734-25.4 108.714-20.851 113.99 4.547 5.273 8.187 5.5 64.676 6.152 38.71.449 66.002 1.893 79.341 1.842a8.495 8.495 0 0 1 8.355 6.792c1.708 8.229 4.304 22.428 5.691 48.62 2.176 41.143-5.528 63.309-5.528 63.309s26.1 4.501 56.632 3.303c30.53 1.196 56.629-3.303 56.629-3.303s-7.702-22.166-5.526-63.309c1.39-26.253 3.997-40.457 5.702-48.679a8.424 8.424 0 0 1 8.285-6.732c13.319.056 40.63-1.393 79.399-1.842 56.49-.653 60.131-.88 64.679-6.152 4.546-5.277-10.659-84.257-20.853-113.991Z" stroke="#000" stroke-width="5" stroke-miterlimit="10"/><path d="M464.49 279.559c-12.737 14.387-43.103 21.246-64.492 21.246-21.388 0-51.753-6.858-64.491-21.246" stroke="#000" stroke-width="5" stroke-miterlimit="10"/><path d="M377.069 201.104c-5.617-7.612-2.697-16.132-5.51-26.142-4.466-15.908 13.326-34.276 31.753-35.454 24.33-1.556 35.986 84.623 22.173 87.811-8.182 1.893-24.139-3.26-36.794-15.684-4.071-3.995-11.622-10.531-11.622-10.531Z" fill="#fff" stroke="#000" stroke-width="5" stroke-miterlimit="10"/><path d="M377.069 201.104c-5.617-7.612-2.697-16.132-5.51-26.142-4.466-15.908 13.326-34.276 31.753-35.454 24.33-1.556 35.986 84.623 22.173 87.811-8.182 1.893-24.139-3.26-36.794-15.684-4.071-3.995-11.622-10.531-11.622-10.531Z" stroke="#000" stroke-width="5" stroke-miterlimit="10"/><path d="M414.643 148.349c1.52 15.184-6.309 43.934-25.919 41.263-22.046-3.002-11.787 8.725-9.624 12.549 2.163 3.822 13.467 10.173 11.477 11.577-1.993 1.398-32.797-5.959-38.335-27.449-5.539-21.493-1.591-33.51 8.926-41.605 10.517-8.094 33.899-12.091 46.038-6.477 12.135 5.614 7.437 10.142 7.437 10.142Z" fill="#000" stroke="#000" stroke-width="5" stroke-miterlimit="10"/><path d="M605.172 738.001c-7.893 3.457-26.653 1.182-26.653 1.182M194.788 738.001c7.889 3.457 26.65 1.182 26.65 1.182M564.845 176.791c5.276-.288 14.828-2.013 16.584-5.069M219.763 166.349c5.541 4.932 16.533 3.926 16.533 3.926" stroke="#000" stroke-width="5" stroke-miterlimit="10"/></svg>

<svg width="800" height="800" viewBox="0 0 800 800" fill="none" xmlns="http://www.w3.org/2000/svg">
<path d="M369.331 142.419C364.836 125.75 344.46 88.4359 307.415 118.112C283.897 136.949 246.504 161.643 220.379 152.804C194.255 143.962 209.944 206.623 245.915 212.677C281.888 218.728 317.578 199.615 329.852 170.684C342.122 141.752 369.331 142.419 369.331 142.419Z" fill="black" stroke="black" stroke-width="5" stroke-miterlimit="10"/>
<path d="M681.416 785.269C677.712 782.004 671.182 781.564 660.302 778.953C649.416 776.34 612.192 769.596 608.925 761.541C605.66 753.482 602.414 733.12 608.049 681.795C613.683 630.473 623.835 607.091 624.668 584.688C625.504 562.289 619.227 561.52 592.793 542.788C566.36 524.057 515.899 498.358 492.13 484.518C468.357 470.677 456.631 437.365 456.631 437.365C456.631 437.365 426.07 440.666 399.999 440.666C373.93 440.666 343.367 437.365 343.367 437.365C343.367 437.365 331.637 470.677 307.87 484.518C284.098 498.358 233.64 524.057 207.206 542.788C180.77 561.52 174.493 562.289 175.326 584.688C176.159 607.091 186.314 630.473 191.949 681.795C197.582 733.12 194.338 753.482 191.072 761.541C187.807 769.596 150.582 776.34 139.697 778.953C128.812 781.564 122.281 782.004 118.582 785.269C114.881 788.534 114.36 790.331 122.411 791.765C130.461 793.193 194.122 796.677 207.399 793.584C220.677 790.494 217.893 769.626 221.787 734.737C225.685 699.851 230.648 645.92 229.256 624.165C227.86 602.41 221.983 593.481 221.983 593.481C221.983 593.481 311.114 568.99 335.277 557.457C359.44 545.922 399.999 517.95 399.999 517.95C399.999 517.95 440.559 545.922 464.722 557.461C488.886 568.992 578.018 593.484 578.018 593.484C578.018 593.484 572.14 602.414 570.745 624.169C569.35 645.923 574.316 699.855 578.209 734.74C582.108 769.63 579.324 790.497 592.602 793.587C605.878 796.679 669.54 793.195 677.592 791.768C685.641 790.331 685.119 788.535 681.416 785.269Z" fill="white" stroke="black" stroke-width="5" stroke-miterlimit="10"/>
<path d="M681.416 785.269C677.712 782.004 671.182 781.564 660.302 778.953C649.416 776.34 612.192 769.596 608.925 761.541C605.66 753.482 602.414 733.12 608.049 681.795C613.683 630.473 623.835 607.091 624.668 584.688C625.504 562.289 619.227 561.52 592.793 542.788C566.36 524.057 515.899 498.358 492.13 484.518C468.357 470.677 456.631 437.365 456.631 437.365C456.631 437.365 426.07 440.666 399.999 440.666C373.93 440.666 343.367 437.365 343.367 437.365C343.367 437.365 331.637 470.677 307.87 484.518C284.098 498.358 233.64 524.057 207.206 542.788C180.77 561.52 174.493 562.289 175.326 584.688C176.159 607.091 186.314 630.473 191.949 681.795C197.582 733.12 194.338 753.482 191.072 761.541C187.807 769.596 150.582 776.34 139.697 778.953C128.812 781.564 122.281 782.004 118.582 785.269C114.881 788.534 114.36 790.331 122.411 791.765C130.461 793.193 194.122 796.677 207.399 793.584C220.677 790.494 217.893 769.626 221.787 734.737C225.685 699.851 230.648 645.92 229.256 624.165C227.86 602.41 221.983 593.481 221.983 593.481C221.983 593.481 311.114 568.99 335.277 557.457C359.44 545.922 399.999 517.95 399.999 517.95C399.999 517.95 440.559 545.922 464.722 557.461C488.886 568.992 578.018 593.484 578.018 593.484C578.018 593.484 572.14 602.414 570.745 624.169C569.35 645.923 574.316 699.855 578.209 734.74C582.108 769.63 579.324 790.497 592.602 793.587C605.878 796.679 669.54 793.195 677.592 791.768C685.641 790.331 685.119 788.535 681.416 785.269Z" stroke="black" stroke-width="5" stroke-miterlimit="10"/>
<path d="M588.314 196.661C578.12 166.925 577.252 138.053 566.31 120.979C555.375 103.905 544.872 110.533 546.908 121.984C548.946 133.435 551.671 146.79 556.028 154.41C560.381 162.027 562.339 163.334 564.08 172.043C565.826 180.75 576.707 268.696 574.968 281.104C573.223 293.513 438.478 278.709 430.857 273.048C423.239 267.39 410.508 254.731 412.737 212.624H399.999H387.26C389.488 254.731 376.761 267.39 369.141 273.048C361.521 278.709 226.773 293.513 225.031 281.104C223.291 268.696 234.175 180.749 235.916 172.043C237.658 163.334 239.618 162.028 243.97 154.41C248.324 146.79 251.051 133.435 253.09 121.984C255.126 110.532 244.622 103.904 233.685 120.979C222.747 138.053 221.876 166.925 211.683 196.661C201.488 226.395 186.283 305.375 190.832 310.651C195.379 315.924 199.019 316.151 255.508 316.803C294.218 317.252 321.51 318.696 334.849 318.645C338.902 318.63 342.384 321.469 343.204 325.437C344.912 333.666 347.508 347.865 348.895 374.057C351.071 415.2 343.367 437.366 343.367 437.366C343.367 437.366 369.467 441.867 399.999 440.669C430.529 441.865 456.628 437.366 456.628 437.366C456.628 437.366 448.926 415.2 451.102 374.057C452.492 347.804 455.099 333.6 456.804 325.378C457.618 321.447 461.072 318.628 465.089 318.646C478.408 318.702 505.719 317.253 544.488 316.804C600.978 316.151 604.619 315.924 609.167 310.652C613.713 305.375 598.508 226.395 588.314 196.661Z" fill="white" stroke="black" stroke-width="5" stroke-miterlimit="10"/>
<path d="M588.314 196.661C578.12 166.925 577.252 138.053 566.31 120.979C555.375 103.905 544.872 110.533 546.908 121.984C548.946 133.435 551.671 146.79 556.028 154.41C560.381 162.027 562.339 163.334 564.08 172.043C565.826 180.75 576.707 268.696 574.968 281.104C573.223 293.513 438.478 278.709 430.857 273.048C423.239 267.39 410.508 254.731 412.737 212.624H399.999H387.26C389.488 254.731 376.761 267.39 369.141 273.048C361.521 278.709 226.773 293.513 225.031 281.104C223.291 268.696 234.175 180.749 235.916 172.043C237.658 163.334 239.618 162.028 243.97 154.41C248.324 146.79 251.051 133.435 253.09 121.984C255.126 110.532 244.622 103.904 233.685 120.979C222.747 138.053 221.876 166.925 211.683 196.661C201.488 226.395 186.283 305.375 190.832 310.651C195.379 315.924 199.019 316.151 255.508 316.803C294.218 317.252 321.51 318.696 334.849 318.645C338.902 318.63 342.384 321.469 343.204 325.437C344.912 333.666 347.508 347.865 348.895 374.057C351.071 415.2 343.367 437.366 343.367 437.366C343.367 437.366 369.467 441.867 399.999 440.669C430.529 441.865 456.628 437.366 456.628 437.366C456.628 437.366 448.926 415.2 451.102 374.057C452.492 347.804 455.099 333.6 456.804 325.378C457.618 321.447 461.072 318.628 465.089 318.646C478.408 318.702 505.719 317.253 544.488 316.804C600.978 316.151 604.619 315.924 609.167 310.652C613.713 305.375 598.508 226.395 588.314 196.661Z" stroke="black" stroke-width="5" stroke-miterlimit="10"/>
<path d="M464.49 279.559C451.753 293.946 421.387 300.805 399.998 300.805C378.61 300.805 348.245 293.947 335.507 279.559" stroke="black" stroke-width="5" stroke-miterlimit="10"/>
<path d="M377.069 201.104C371.452 193.492 374.372 184.972 371.559 174.962C367.093 159.054 384.885 140.686 403.312 139.508C427.642 137.952 439.298 224.131 425.485 227.319C417.303 229.212 401.346 224.059 388.691 211.635C384.62 207.64 377.069 201.104 377.069 201.104Z" fill="white" stroke="black" stroke-width="5" stroke-miterlimit="10"/>
<path d="M377.069 201.104C371.452 193.492 374.372 184.972 371.559 174.962C367.093 159.054 384.885 140.686 403.312 139.508C427.642 137.952 439.298 224.131 425.485 227.319C417.303 229.212 401.346 224.059 388.691 211.635C384.62 207.64 377.069 201.104 377.069 201.104Z" stroke="black" stroke-width="5" stroke-miterlimit="10"/>
<path d="M414.643 148.349C416.163 163.533 408.334 192.283 388.724 189.612C366.678 186.61 376.937 198.337 379.1 202.161C381.263 205.983 392.567 212.334 390.577 213.738C388.584 215.136 357.78 207.779 352.242 186.289C346.703 164.796 350.651 152.779 361.168 144.684C371.685 136.59 395.067 132.593 407.206 138.207C419.341 143.821 414.643 148.349 414.643 148.349Z" fill="black" stroke="black" stroke-width="5" stroke-miterlimit="10"/>
<path d="M605.172 738.001C597.279 741.458 578.519 739.183 578.519 739.183" stroke="black" stroke-width="5" stroke-miterlimit="10"/>
<path d="M194.788 738.001C202.677 741.458 221.438 739.183 221.438 739.183" stroke="black" stroke-width="5" stroke-miterlimit="10"/>
<path d="M564.845 176.791C570.121 176.503 579.673 174.778 581.429 171.722" stroke="black" stroke-width="5" stroke-miterlimit="10"/>
<path d="M219.763 166.349C225.304 171.281 236.296 170.275 236.296 170.275" stroke="black" stroke-width="5" stroke-miterlimit="10"/>
</svg>
